X:43
T:TOM MELLIN'S HORNPIPE
B:John of the Greeny Cheshire Way
N: John Offord, Reproduced with permission
M:3/2
L:1/8
K:C
P:1
A2 BA E2 e2 c2 BA | A2 BA E2 A2 F2 ED | A2 BA E2 e2 c2 BA| A2 Bc d2 D2 F2
ED ||
P:2
e2 c2 A2 e2 c2 BA | A2 BA E2 A2 F2 ED | e2 c2 A2 e2 fedc | Bc d2 D2 A2 F2
ED ||
P:3
e2 fg a2 gf fedc | e2 fe E2 A2 F2 ED | e2 fg a2 gf e2 dc| B2 cd D2 A2 F2
ED ||
P:4
ec A2 ec A2 ec A2 | A4 E3 A F2 ED | ec A2 ec A2 ec A2| d4 D3 A F2 ED |]
